img/icons/svg/icon__enter.svg

<svg width="20" height="20" viewBox="0 0 20 20" fill="none" xmlns="http://www.w3.org/2000/svg">
<g clip-path="url(#clip0)">
<path d="M13.2608 10.6522H0.652174C0.292173 10.6522 0 10.36 0 10C0 9.64001 0.292173 9.34784 0.652174 9.34784H13.2608C13.6208 9.34784 13.913 9.64001 13.913 10C13.913 10.36 13.6208 10.6522 13.2608 10.6522Z" fill="black"/>
<path d="M9.78238 14.1304C9.61536 14.1304 9.4485 14.067 9.32144 13.9392C9.06668 13.6844 9.06668 13.2714 9.32144 13.0165L12.3389 9.99923L9.32144 6.9818C9.06668 6.72705 9.06668 6.31386 9.32144 6.05911C9.57635 5.80435 9.98937 5.80435 10.2441 6.05911L13.7223 9.53748C13.9771 9.79224 13.9771 10.2053 13.7223 10.46L10.2441 13.9382C10.1163 14.067 9.94941 14.1304 9.78238 14.1304V14.1304Z" fill="black"/>
<path d="M10.4345 19.5653C6.47702 19.5653 2.98321 17.1844 1.5319 13.4991C1.39975 13.1652 1.56486 12.7861 1.89971 12.6539C2.23359 12.5235 2.61366 12.6861 2.74581 13.0227C3.99889 16.2044 7.0171 18.2609 10.4345 18.2609C14.9892 18.2609 18.6954 14.5547 18.6954 9.99999C18.6954 5.44528 14.9892 1.73907 10.4345 1.73907C7.0171 1.73907 3.99889 3.79558 2.74581 6.97732C2.6127 7.31391 2.23359 7.47648 1.89971 7.34608C1.56486 7.21392 1.39975 6.83482 1.5319 6.50093C2.98321 2.81557 6.47702 0.434723 10.4345 0.434723C15.7084 0.434723 19.9997 4.72608 19.9997 9.99999C19.9997 15.2739 15.7084 19.5653 10.4345 19.5653V19.5653Z" fill="black"/>
</g>
<defs>
<clipPath id="clip0">
<rect width="20" height="20" fill="white"/>
</clipPath>
</defs>
</svg>

<svg width="20" height="20" viewBox="0 0 20 20" fill="none" xmlns="http://www.w3.org/2000/svg"><g clip-path="url(#clip0)" fill="#000"><path d="M13.26 10.652H.653a.652.652 0 010-1.304h12.609a.652.652 0 010 1.304z"/><path d="M9.782 14.13a.653.653 0 01-.46-1.114L12.338 10 9.32 6.982a.653.653 0 01.923-.923l3.478 3.478a.652.652 0 010 .923l-3.478 3.478a.647.647 0 01-.462.192z"/><path d="M10.434 19.565A9.516 9.516 0 011.533 13.5a.652.652 0 111.214-.476 8.22 8.22 0 007.688 5.238c4.555 0 8.261-3.706 8.261-8.261s-3.706-8.26-8.26-8.26a8.22 8.22 0 00-7.69 5.237.652.652 0 11-1.214-.476A9.516 9.516 0 0110.435.435C15.709.435 20 4.726 20 10c0 5.274-4.292 9.565-9.566 9.565z"/></g><defs><clipPath id="clip0"><path fill="#fff" d="M0 0h20v20H0z"/></clipPath></defs></svg>
